svg/idea.svg

<svg xmlns="http://www.w3.org/2000/svg" viewBox="0 0 32 32" enable-background="new 0 0 32 32"><path d="M 6.8125 2.40625 L 5.40625 3.8125 L 7.5 5.90625 L 8.90625 4.5 L 6.8125 2.40625 z M 25.1875 2.40625 L 23.09375 4.5 L 24.5 5.90625 L 26.59375 3.8125 L 25.1875 2.40625 z M 16 3.03125 C 15.671043 3.034372 15.335708 3.0530069 15 3.09375 C 14.98916 3.09507 14.97959 3.09239 14.96875 3.09375 C 10.914372 3.5586693 7.6860072 6.8357481 7.125 10.875 C 6.6769564 14.123316 8.0170316 17.070727 10.25 18.96875 C 11.205925 19.788114 11.797464 20.88315 12 22 L 12 23 L 12 27 L 12 28 L 13 28 L 14.28125 28 C 14.628312 28.596878 15.263455 29 16 29 C 16.736545 29 17.371688 28.596878 17.71875 28 L 19 28 L 20 28 L 20 27 L 20 24 L 20.09375 24 L 20.09375 23 L 20.09375 22.8125 C 20.09375 21.345833 20.855701 19.868367 22.09375 18.71875 C 23.750885 17.061615 25 14.705556 25 12 C 25 7.0585063 20.934362 2.9844199 16 3.03125 z M 16 5.03125 C 19.864717 4.9763797 23 8.1389628 23 12 C 23 14.094444 22.030365 15.938385 20.6875 17.28125 L 20.71875 17.3125 C 19.375453 18.566441 18.51678 20.20798 18.28125 22 L 13.90625 22 C 13.686803 20.285815 12.950698 18.627384 11.5625 17.4375 C 9.7954684 15.935523 8.7417936 13.676684 9.09375 11.125 C 9.5313357 7.9743831 12.087411 5.4416766 15.21875 5.09375 C 15.482176 5.0608218 15.742352 5.034908 16 5.03125 z M 2 12 L 2 14 L 5 14 L 5 12 L 2 12 z M 27 12 L 27 14 L 30 14 L 30 12 L 27 12 z M 7.5 20.09375 L 5.40625 22.1875 L 6.8125 23.59375 L 8.90625 21.5 L 7.5 20.09375 z M 24.5 20.09375 L 23.09375 21.5 L 25.1875 23.59375 L 26.59375 22.1875 L 24.5 20.09375 z M 14 24 L 18 24 L 18 26 L 14 26 L 14 24 z"/></svg>

<svg xmlns="http://www.w3.org/2000/svg" viewBox="0 0 32 32"><path d="M6.813 2.406L5.405 3.812 7.5 5.906 8.906 4.5 6.812 2.406zm18.375 0L23.093 4.5 24.5 5.906l2.094-2.093-1.407-1.407zM16 3.03c-.33.004-.664.023-1 .064-.01 0-.02-.002-.03 0-4.056.465-7.284 3.742-7.845 7.78-.448 3.25.892 6.197 3.125 8.095.956.818 1.547 1.913 1.75 3.03v6H14.28c.348.597.983 1 1.72 1s1.372-.403 1.72-1H20v-4h.094v-1.188c0-1.466.762-2.944 2-4.093C23.75 17.06 25 14.705 25 12c0-4.94-4.066-9.016-9-8.97zm0 2c3.865-.054 7 3.11 7 6.97 0 2.094-.97 3.938-2.313 5.28l.032.032c-1.345 1.254-2.203 2.896-2.44 4.688h-4.374c-.22-1.714-.955-3.373-2.344-4.563-1.767-1.5-2.82-3.76-2.468-6.312.437-3.15 2.993-5.683 6.125-6.03.262-.034.522-.06.78-.064zM2 12v2h3v-2H2zm25 0v2h3v-2h-3zM7.5 20.094l-2.094 2.093 1.407 1.407L8.905 21.5 7.5 20.094zm17 0L23.094 21.5l2.093 2.094 1.407-1.407-2.094-2.093zM14 24h4v2h-4v-2z"/></svg>
